X: 1539
T: Ol Güzel Takmış...
C: Ahmet Avni Konuk
O: Turkey
F: http://compmusic.upf.edu/node/140
N: revnaknuma--kupe--agirevfer--ol--ahmet_avni_konuk
N: makam= revnaknuma
N: form= kupe
N: usul= agirevfer = 9/4
M: 9/4
L: 1/16
K: C _1/4B _1/4e ^f ^c
Q: 1/4=72
%%MIDI tuningsystem comma53
z4 d8 d2e2 =f3e d2^3/4c2 c4 d4 z4  | \
w:  Ol  gü *  zel  *  *  *  tak  | 
z4 d2e2 d4 B4 d=cde d2c2 B3^A B4 z4  | 
w:  mış  *  *  ta kış *  *  *  *  *  tır  | 
z4 B8 d4 d3^3/4c B4 d2c2 B2^A2 B4  | \
w:  mış  da  ol *  *  muş   | 
z4 d8 e2=f2 e2d2 =c2d2 d8 z4  | 
w:  dil ru *  bâ    | 
z4 d8 d4 ^3/4c2d2 e2^3/4f2 g2^2/4f2 ^1/4f2e2 e2d2  | \
w:  Mec lis_ i  *  *  *  uş  | 
z4 d2e2 d4 B4 d=cde d2c2 B2^3/4A2 B4 z4  | 
w:  şâ *  *  ka  ol *  *  *  *  *  muş  | 
z4 B8 =c4 c2B2 B2^A2 A3G G2GF F4  | \
w:  tur  bu  şeb  *  *  Rev  | 
z4 ^A2B2 =c4 B2A2 A3G G2GF F8 z4  | 
w:  nak *  *  nü *  mâ    | 
|


